X:1
T:Title
%%score { 1 | 2 }
L:1/8
Q:1/4=100
M:4/4
K:Ab
V:1 treble nm="Grand Piano"
V:2 bass 
V:1
 [CE]3 [CE] [DF][CE][EA]B | c4 [CA]4 | [DF]3 [EG] [FA][Fd] [Fd]>[Ec] | B6 z2 | c3 d ec[GB]A | %5
w: I.~Baltzell * * * * *|||||
 [FA]4 F4 | G3 B Bd c>B |[M:3/4] [CA]6 |[M:1/4] [A,C][CE] |[M:4/4] [CA]<[CA] C>C C2 [CE][CA] | %10
w: |||||
 c<c E>E E2 Ac | e<e c>d c2 B>A | [GB]6 C[CE] | [CA]<[CA] C>C C2 [CE][CA] | c<c E>E E2 Ac | %15
w: |||||
 e<e [Ac]>B A2 G>G | [CEA]6 z2 |] %17
w: ||
V:2
 [A,,A,]3 [A,,A,] [A,,A,][A,,A,][C,A,][E,G,E] | [A,E]4 [A,,A,]4 | %2
 [D,A,]3 [D,A,] [D,A,][D,A,] [A,,A,]>[A,,A,] | [E,G,E]6 z2 | %4
 [A,E]3 [A,B,E] [A,CE][A,EA][K:bass][E,D][F,C] | [D,D]4 [D,A,D]4 | %6
 [E,D]3 [E,G,D] [E,G,D][E,G,F] [E,A,E]>[E,G,D] |[M:3/4] [A,,A,]6 |[M:1/4] [A,,E,][A,,A,] | %9
[M:4/4] [A,,E,]<[A,,E,] [A,,E,]>[A,,E,] [A,,E,]2 [A,,A,][A,,A,] | %10
 [A,E]<[A,E] [A,C]>[A,C] [A,C]2 [A,CE][A,E] | %11
 [A,CA]<[A,CA] [A,EA]>[A,FA] [A,EA]2[K:bass] [G,B,E]>[F,CF] | [E,E]6 [A,,A,][A,,A,] | %13
 [A,,E,]<[A,,E,] [A,,E,]>[A,,E,] [A,,E,]2 [A,,A,][A,,A,] | %14
 [A,E]<[A,E] [A,C]>[A,C] [A,C]2 [A,CE][A,E] | %15
 [A,CA]<[A,CA][K:bass] [E,E]>[E,DE] [E,CE]2 [E,B,E]>[E,DE] | [A,,A,]6 z2 |] %17

